X: 23151
T: Le Bal D'Erquy
R: barndance
M: 4/4
K: Dmajor
eefe e2 A/B/c2|c/e/d/c/ B2 c/d/ e/d/c/B/ c2 A2|
eefe e/a/ A/B/c2|c/e/d/c/ B2 c/d/ e/d/c/B/ A2|
ccdB B2 A/B/ c2|c/e/d/c/ B2 c/d/ e/d/c/B/ c2 A2|
ccdB B/e/A/B/ c2|c/e/d/c/ B2 c/d/ e/d/c/B/ A2|

